X:1
T:Corbet, CM
T:Corbet, CM
T:William Mason, 1869
T:Public Domain Courtesy of the Cyber Hymnal™
C:William Mason, 1869
Z:Public Domain
Z:Courtesy of the Cyber Hymnal™
%%score ( 1 2 ) ( 3 4 )
L:1/8
Q:1/4=160
M:6/4
K:A
V:1 treble 
V:2 treble 
V:3 bass 
V:4 bass 
V:1
 [CE]6 | [EA]4 [CE]2 [DF]4 [DG]2 | [EA]4 [EB]2 [Ec]4 [Ec]2 | [Ed]4 [Ed]2 [Ec]4 [Ec]2 | %4
 [EB]6 [Ee]6 | [Ec]4 [EA]2 F4 [DG]2 | [EA]4 [EB]2 [Ec]4 [Ee]2 | [Fd]4 [Fd]2 [Ec]4 [DB]2 | [CA]6 |] %9
V:2
 x6 | x12 | x12 | x12 | x12 | x6 F4 x2 | x12 | x12 | x6 |] %9
V:3
 [A,,A,]6 | [A,,C]4 [A,,A,]2 [D,A,]4 [B,,B,]2 | [C,A,]4 [E,G,]2 A,4 A,2 | [G,B,]4 [G,B,]2 A,4 A,2 | %4
 [E,G,]6 [E,G,]6 | A,4 [C,A,]2 [D,A,]4 [B,,B,]2 | [C,A,]4 [E,G,]2 A,4 [C,A,]2 | %7
 [D,A,]4 [D,A,]2 [E,A,]4 [E,G,]2 | [A,,A,]6 |] %9
V:4
 x6 | x12 | x6 A,4 A,2 | x6 A,4 A,2 | x12 | A,4 x8 | x6 A,4 x2 | x12 | x6 |] %9

